img/svg/catalog_specodejda.svg

<svg width="54" height="63" viewBox="0 0 54 63" fill="none" xmlns="http://www.w3.org/2000/svg">
<path fill-rule="evenodd" clip-rule="evenodd" d="M30.9113 37.8236C30.92 35.8916 31.1707 34.2468 30.768 32.6125C30.4981 32.5396 30.3066 32.4439 30.1145 32.4426C27.967 32.4315 25.8194 32.4266 23.6718 32.4457C23.4303 32.4482 23.19 32.6119 22.8615 32.7335C22.9572 34.408 22.5786 36.0639 23.1196 37.7532C23.8806 37.7791 24.5427 37.8174 25.2048 37.8205C27.0115 37.8298 28.8181 37.8236 30.9113 37.8236ZM22.9794 52.3366C23.8787 52.8208 24.7681 52.596 25.6236 52.6293C26.497 52.6633 27.3728 52.6621 28.2468 52.6293C29.0966 52.5972 29.9848 52.8171 30.8514 52.3409C31.0009 50.6584 31.1256 49.0093 30.7711 47.3879C28.9058 47.068 24.6119 47.0921 23.0208 47.4343C22.7268 49.0562 22.7849 50.7023 22.9794 52.3366ZM2.93539 59.2864C3.20839 59.3234 3.52895 59.4044 3.85013 59.405C10.7153 59.4118 17.5805 59.4112 24.4463 59.4013C24.7607 59.4007 25.0757 59.2957 25.4587 59.2271C25.5575 57.8806 25.6989 56.6428 25.3246 55.3198C24.1628 55.2889 23.0937 55.2988 22.0313 55.2222C20.9103 55.1419 20.3433 54.5502 20.2327 53.4273C20.1685 52.7732 20.1568 52.1136 20.1222 51.4786C19.8121 51.3699 19.6268 51.2477 19.4415 51.247C14.1921 51.2316 8.94205 51.2267 3.69201 51.2297C3.43631 51.2297 3.17998 51.3193 2.95824 51.3607C2.52836 52.9135 2.51045 57.4612 2.93539 59.2864ZM33.6506 51.3792C33.6098 52.2038 33.608 52.8733 33.5382 53.536C33.4326 54.5323 32.8538 55.1074 31.8551 55.2185C31.3894 55.2704 30.9162 55.2383 30.4462 55.2574C29.7909 55.284 29.1349 55.3223 28.3993 55.3594C28.1393 56.7145 28.1887 57.9461 28.3431 59.2357C28.7044 59.3055 28.9577 59.3957 29.2109 59.3957C36.2614 59.3969 43.3119 59.3901 50.3624 59.3753C50.5508 59.3747 50.7379 59.2598 50.9109 59.203C51.2963 57.5218 51.2827 52.9443 50.8868 51.3953C50.7169 51.3452 50.531 51.2433 50.3445 51.2427C45.1068 51.2297 39.8691 51.2248 34.6308 51.2273C34.3732 51.2273 34.1157 51.3045 33.6506 51.3792ZM2.68648 36.6377C2.68648 40.5153 2.68277 44.2132 2.69821 47.9117C2.69883 48.0816 2.87115 48.2508 2.98357 48.4583C3.2473 48.4991 3.50857 48.5738 3.76984 48.5745C8.88399 48.5812 13.9988 48.5837 19.1135 48.5707C19.4304 48.5695 19.7466 48.438 20.0845 48.362C20.1308 48.0328 20.1839 47.7715 20.2012 47.5078C20.2228 47.1718 20.1957 46.8327 20.2253 46.4979C20.334 45.2607 20.8874 44.708 22.1413 44.6067C22.6101 44.569 23.0832 44.6042 23.5538 44.5832C24.1443 44.5572 24.7336 44.5072 25.3734 44.4646C25.6174 43.0996 25.6897 41.8668 25.3246 40.603C24.8571 40.5647 24.4599 40.5178 24.0609 40.5042C23.523 40.4857 22.9825 40.5197 22.4464 40.4845C20.8763 40.3794 20.313 39.7976 20.2136 38.2306C20.1808 37.7124 20.1382 37.1948 20.1018 36.6995C19.7855 36.5994 19.5996 36.4895 19.4125 36.4889C14.1631 36.4753 8.91426 36.4716 3.66484 36.4747C3.40975 36.4747 3.15466 36.5568 2.68648 36.6377ZM33.6494 48.3367C35.1138 48.8079 36.5307 48.5399 37.9235 48.5825C39.3991 48.6282 40.8777 48.593 42.3552 48.593C43.7659 48.593 45.1766 48.6177 46.5861 48.5856C48.04 48.5528 49.5113 48.7357 50.9282 48.4571C51.0325 48.1304 51.1431 47.9445 51.1437 47.7585C51.1585 44.3324 51.1641 40.9057 51.1579 37.479C51.1573 37.2214 51.056 36.9638 50.9566 36.4969C49.0314 36.416 47.0993 36.4642 45.1704 36.4561C43.2903 36.4475 41.4089 36.4222 39.5294 36.4629C37.6067 36.5043 35.6678 36.2708 33.7049 36.6396C33.6524 36.9922 33.5987 37.2461 33.5808 37.503C33.5586 37.8378 33.5839 38.1763 33.5555 38.5104C33.4505 39.7266 32.8952 40.3307 31.6692 40.4573C30.9366 40.5326 30.1917 40.4715 29.4555 40.5129C29.0806 40.5339 28.7106 40.645 28.3023 40.7229C28.2418 42.028 28.0973 43.2089 28.403 44.4214C28.7538 44.4831 29.0102 44.5591 29.2684 44.5671C30.0738 44.5937 30.8823 44.556 31.6846 44.6141C32.923 44.7036 33.456 45.2706 33.5573 46.5319C33.6049 47.1273 33.6191 47.7246 33.6494 48.3367ZM33.6944 33.6909C35.7605 33.8527 37.6369 33.7595 39.5084 33.7761C41.4577 33.7928 43.4076 33.8064 45.3576 33.7718C47.2161 33.7391 49.0876 33.9293 50.9226 33.6359C51.0208 33.35 51.1375 33.1634 51.14 32.975C51.1616 31.1591 51.1542 29.3432 51.1771 27.5274C51.1851 26.8523 50.8485 26.4075 50.3612 25.995C47.3186 23.4194 45.2532 20.1427 43.6121 16.5585C41.9172 12.8557 40.9321 8.96383 40.4627 4.92933C40.3787 4.20668 40.4466 3.4377 39.8913 2.76755C38.8735 2.60758 37.8216 2.59831 36.9081 2.75828C36.6845 2.97693 36.5603 3.05414 36.4973 3.16593C34.3442 6.96882 32.1596 10.7544 30.0633 14.5882C28.8533 16.8018 28.2554 19.215 28.2406 21.7517C28.227 23.9709 28.2276 26.1914 28.2393 28.4106C28.2418 28.7948 28.3271 29.1777 28.3789 29.6039C28.7421 29.6613 28.9966 29.7274 29.2529 29.7373C29.7909 29.7583 30.3289 29.7453 30.8668 29.7534C33.0292 29.7861 33.4641 30.1999 33.5722 32.3043C33.5919 32.6996 33.6407 33.093 33.6944 33.6909ZM21.3334 4.61186C21.5885 5.17516 21.7478 5.60504 21.9689 6.00096C23.0517 7.93915 24.1591 9.86313 25.2369 11.8044C25.4531 12.1929 25.8496 12.5437 25.6372 13.1614C25.0411 13.5579 24.4328 14.0595 23.547 14.1669C21.355 10.3122 19.1994 6.5204 17.0135 2.67552C15.8647 2.72802 14.8104 2.5069 13.6554 2.88305C13.5374 3.61497 13.4379 4.34071 13.3021 5.05965C12.9024 7.17264 12.6443 9.32763 12.0501 11.385C10.4195 17.0285 7.88463 22.1791 3.31586 26.0919C2.80383 26.5305 2.63089 27.0511 2.63521 27.6892C2.64756 29.3723 2.63274 31.0554 2.6593 32.7379C2.66424 33.0448 2.81062 33.35 2.90142 33.694C3.33563 33.7267 3.66298 33.773 3.99096 33.773C8.96923 33.778 13.9475 33.7811 18.9264 33.7675C19.3087 33.7663 19.691 33.6415 20.0987 33.5698C20.1413 33.1535 20.1845 32.8243 20.2055 32.4945C20.2265 32.1585 20.1988 31.8182 20.2401 31.4859C20.3612 30.5026 20.9529 29.8967 21.9282 29.7849C22.3939 29.7311 22.8689 29.7682 23.3395 29.7503C23.9961 29.7256 24.652 29.6885 25.4167 29.6508C25.4679 29.0882 25.5427 28.636 25.5458 28.1839C25.5606 26.4335 25.5785 24.6831 25.547 22.9333C25.4784 19.0692 26.4055 15.477 28.3505 12.1349C29.6025 9.98296 30.8038 7.80265 32.0138 5.62666C32.159 5.36539 32.2115 5.05286 32.3461 4.64768C30.4011 4.90709 28.6204 5.33266 26.841 5.32771C25.064 5.32216 23.2882 4.88486 21.3334 4.61186ZM11.3571 0.0220871C13.4979 0.0220871 15.3798 -0.0174426 17.2575 0.0455578C17.8375 0.0653227 18.4199 0.332148 18.9814 0.540297C20.305 1.03133 21.5984 1.60822 22.9362 2.05416C25.5723 2.93246 28.2381 2.92073 30.8736 2.0486C32.1491 1.62675 33.385 1.0863 34.6438 0.614415C35.2065 0.403178 35.7753 0.0943523 36.3541 0.0628521C37.8302 -0.016825 39.3163 -0.0205309 40.7937 0.0504991C42.0618 0.111029 42.5411 0.615033 42.7492 1.94113C42.9469 3.20485 43.0803 4.47844 43.2489 5.74648C43.8585 10.343 45.2983 14.658 47.6688 18.6498C48.8806 20.6906 50.3019 22.5738 52.1869 24.0376C53.358 24.9462 53.8021 26.0567 53.7965 27.5292C53.7595 37.8372 53.7774 48.1458 53.7755 58.4538C53.7755 58.7904 53.7823 59.1307 53.7403 59.463C53.5723 60.7922 52.5964 61.8293 51.2654 62.0275C50.6706 62.1165 50.0567 62.0905 49.4514 62.0905C34.4356 62.093 19.4205 62.093 4.4054 62.0918C3.86681 62.0918 3.32451 62.114 2.79086 62.0603C1.24797 61.9065 0.188075 60.8527 0.0324269 59.3284C-0.0157499 58.8608 0.00401492 58.3865 0.00401492 57.9146C0.00277962 47.9432 0.00277962 37.9718 0.00339727 28.0005C0.00339727 27.5959 0.0114267 27.192 0.0138973 26.788C0.0182209 25.8523 0.39993 25.0784 1.09911 24.4885C7.02054 19.501 9.49053 12.8044 10.5671 5.41172C10.8185 3.68785 11.0723 1.96398 11.3571 0.0220871Z" fill="#A5FF14"/>
</svg>

<svg width="54" height="63" fill="none" xmlns="http://www.w3.org/2000/svg"><path fill-rule="evenodd" clip-rule="evenodd" d="M30.911 37.824c.009-1.932.26-3.577-.143-5.212-.27-.072-.461-.168-.654-.17a458.156 458.156 0 00-6.442.004c-.242.002-.482.166-.81.288.095 1.674-.283 3.33.258 5.02.76.025 1.423.063 2.085.067 1.807.009 3.613.003 5.706.003zM22.98 52.337c.9.484 1.79.259 2.645.292.873.034 1.749.033 2.623 0 .85-.032 1.738.188 2.604-.288.15-1.683.275-3.332-.08-4.953-1.865-.32-6.16-.296-7.75.046-.294 1.622-.236 3.268-.042 4.903zm-20.044 6.95c.273.036.594.117.915.118 6.865.007 13.73.006 20.596-.004.315 0 .63-.105 1.013-.174.099-1.346.24-2.584-.134-3.907-1.162-.031-2.231-.021-3.294-.098-1.12-.08-1.688-.672-1.798-1.795-.064-.654-.076-1.313-.11-1.948-.31-.11-.496-.231-.681-.232-5.25-.015-10.5-.02-15.75-.017-.256 0-.512.09-.734.13-.43 1.553-.448 6.101-.023 7.926zm30.716-7.908c-.041.825-.043 1.494-.113 2.157-.105.996-.684 1.571-1.683 1.682-.466.052-.939.02-1.409.04-.655.026-1.311.064-2.047.101-.26 1.355-.21 2.587-.056 3.877.361.07.615.16.868.16 7.05 0 14.1-.006 21.151-.02.189-.001.376-.116.549-.173.385-1.681.372-6.259-.024-7.808-.17-.05-.356-.152-.543-.152a5486.27 5486.27 0 00-15.713-.016c-.258 0-.515.078-.98.152zM2.686 36.638c0 3.877-.003 7.575.012 11.274 0 .17.173.339.286.546.263.041.525.116.786.117 5.114.006 10.229.009 15.343-.004.317-.002.634-.133.971-.209.047-.33.1-.59.117-.854.022-.336-.005-.675.024-1.01.109-1.237.662-1.79 1.916-1.891.47-.038.942-.003 1.413-.024.59-.026 1.18-.076 1.82-.118.243-1.365.316-2.598-.05-3.862-.467-.038-.864-.085-1.263-.099-.538-.018-1.078.016-1.615-.02-1.57-.105-2.133-.686-2.232-2.253-.033-.519-.076-1.036-.112-1.532-.317-.1-.502-.21-.69-.21a4949.88 4949.88 0 00-15.747-.014c-.255 0-.51.082-.979.163zM33.65 48.337c1.465.47 2.882.203 4.274.245 1.476.046 2.955.011 4.432.011 1.41 0 2.822.025 4.231-.007 1.454-.033 2.925.15 4.342-.129.105-.327.215-.513.216-.699.014-3.426.02-6.852.014-10.279 0-.258-.102-.515-.201-.982-1.926-.081-3.858-.033-5.787-.04-1.88-.01-3.761-.035-5.64.006-1.923.041-3.862-.192-5.825.177-.053.352-.106.606-.124.863-.022.335.003.673-.026 1.007-.105 1.217-.66 1.82-1.886 1.947-.732.076-1.477.014-2.213.056-.375.02-.745.132-1.154.21-.06 1.305-.205 2.486.101 3.698.35.062.607.138.865.146.806.027 1.614-.011 2.417.047 1.238.09 1.771.657 1.872 1.918.048.595.062 1.193.092 1.805zm.045-14.646c2.066.162 3.943.069 5.814.085 1.95.017 3.9.03 5.85-.004 1.858-.033 3.73.157 5.565-.136.098-.286.215-.473.217-.661.022-1.816.014-3.632.037-5.448.008-.675-.328-1.12-.816-1.532-3.042-2.576-5.108-5.852-6.749-9.437-1.695-3.702-2.68-7.594-3.15-11.629-.083-.722-.015-1.491-.57-2.161-1.019-.16-2.07-.17-2.984-.01-.224.219-.348.296-.41.408-2.154 3.803-4.338 7.588-6.435 11.422-1.21 2.214-1.808 4.627-1.822 7.164-.014 2.219-.013 4.44-.002 6.659.003.384.088.767.14 1.193.363.057.618.123.874.133.538.021 1.076.008 1.614.016 2.162.033 2.597.447 2.705 2.551.02.396.069.789.122 1.387zM21.334 4.61c.255.564.414.994.635 1.39 1.083 1.938 2.19 3.862 3.268 5.803.216.389.613.74.4 1.357-.596.397-1.204.899-2.09 1.006l-6.534-11.49c-1.148.052-2.203-.17-3.358.207-.118.732-.217 1.458-.353 2.177-.4 2.113-.658 4.268-1.252 6.325-1.63 5.644-4.165 10.794-8.734 14.707-.512.439-.685.96-.68 1.597.012 1.683-.003 3.366.023 5.049.005.307.152.612.242.956.435.033.762.079 1.09.079 4.978.005 9.957.008 14.935-.006.383 0 .765-.126 1.173-.197.042-.416.085-.746.107-1.075.02-.337-.007-.677.034-1.01.121-.982.713-1.588 1.688-1.7.466-.054.94-.017 1.412-.035.656-.024 1.312-.061 2.077-.1.05-.562.126-1.014.129-1.466.015-1.75.032-3.5.001-5.25-.069-3.865.858-7.457 2.803-10.8 1.252-2.151 2.454-4.331 3.664-6.507.145-.262.197-.574.332-.98-1.945.26-3.726.686-5.505.68-1.777-.005-3.553-.442-5.508-.715zM11.356.023c2.14 0 4.023-.04 5.9.024.58.02 1.163.286 1.724.494 1.324.491 2.617 1.068 3.955 1.514 2.636.878 5.302.867 7.938-.005 1.275-.422 2.511-.963 3.77-1.435.563-.21 1.131-.52 1.71-.551a43.622 43.622 0 014.44-.013c1.268.061 1.747.565 1.955 1.891.198 1.264.331 2.537.5 3.805.61 4.597 2.05 8.912 4.42 12.904 1.212 2.04 2.633 3.924 4.518 5.388 1.171.908 1.615 2.019 1.61 3.491-.037 10.308-.02 20.617-.021 30.925 0 .336.006.677-.036 1.009-.168 1.33-1.144 2.366-2.475 2.565-.594.089-1.208.063-1.814.063-15.015.002-30.03.002-45.046 0-.538 0-1.08.023-1.614-.03-1.543-.154-2.603-1.208-2.759-2.733-.048-.467-.028-.942-.028-1.413V28c0-.404.007-.808.01-1.212.004-.936.386-1.71 1.085-2.3C7.02 19.501 9.49 12.804 10.566 5.412l.79-5.39z" fill="#A5FF14"/></svg>
